src/glyphs/assignment-complete.svg

<svg width="18" height="18" xmlns="http://www.w3.org/2000/svg" fill="none">

 <g>
  <title>Layer 1</title>
  <path id="svg_2" stroke-linejoin="round" stroke-linecap="round" stroke-width="0.5" stroke="#000000" fill="#000000" d="m14.5687,4.76426c0.1302,0.13017 0.1302,0.34123 0,0.4714l-7.33332,7.33334c-0.06252,0.0625 -0.1473,0.0976 -0.23571,0.0976c-0.0884,0 -0.17319,-0.0351 -0.2357,-0.0976l-3.33333,-3.33334c-0.13018,-0.13017 -0.13018,-0.34123 0,-0.4714c0.13017,-0.13018 0.34123,-0.13018 0.4714,0l3.09763,3.09764l7.09763,-7.09764c0.1302,-0.13018 0.3412,-0.13018 0.4714,0z" clip-rule="evenodd" fill-rule="evenodd"/>
  <rect id="svg_3" stroke="#000000" rx="2.5" height="17" width="17" y="0.5" x="0.5"/>
 </g>
</svg>

<svg width="18" height="18" viewBox="0 0 18 18" fill="none" xmlns="http://www.w3.org/2000/svg">
<rect x="0.5" y="0.5" width="17" height="17" rx="2.5" fill="#EBF6EE"/>
<path fill-rule="evenodd" clip-rule="evenodd" d="M14.5687 4.76426C14.6989 4.89443 14.6989 5.10549 14.5687 5.23566L7.23538 12.569C7.17286 12.6315 7.08808 12.6666 6.99967 12.6666C6.91127 12.6666 6.82648 12.6315 6.76397 12.569L3.43064 9.23566C3.30046 9.10549 3.30046 8.89443 3.43064 8.76426C3.56081 8.63408 3.77187 8.63408 3.90204 8.76426L6.99967 11.8619L14.0973 4.76426C14.2275 4.63408 14.4385 4.63408 14.5687 4.76426Z" fill="#2EA44F" stroke="#2EA44F" stroke-width="0.5" stroke-linecap="round" stroke-linejoin="round"/>
<rect x="0.5" y="0.5" width="17" height="17" rx="2.5" stroke="#2EA44F"/>
</svg>
